icons/unlock-24.svg

<svg width="24" height="24" viewBox="0 0 24 24" xmlns="http://www.w3.org/2000/svg">
  <path fill-rule="evenodd" clip-rule="evenodd" d="M7.5 7.25C7.5 4.58009 9.42172 2.5 12 2.5C14.079 2.5 15.71 3.84093 16.2818 5.74211C16.4011 6.13877 16.8193 6.36363 17.216 6.24434C17.6127 6.12505 17.8375 5.70679 17.7182 5.31012C16.9709 2.82497 14.7919 1 12 1C8.50314 1 6 3.84478 6 7.25V9H5.5C4.11929 9 3 10.1193 3 11.5V19.5C3 20.8807 4.11929 22 5.5 22H18.5C19.8807 22 21 20.8807 21 19.5V11.5C21 10.1193 19.8807 9 18.5 9H7.5V7.25ZM4.5 11.5C4.5 10.9477 4.94772 10.5 5.5 10.5H18.5C19.0523 10.5 19.5 10.9477 19.5 11.5V19.5C19.5 20.0523 19.0523 20.5 18.5 20.5H5.5C4.94772 20.5 4.5 20.0523 4.5 19.5V11.5Z"/>
</svg>

<svg xmlns="http://www.w3.org/2000/svg" width="24" height="24" viewBox="0 0 24 24"><path fill-rule="evenodd" d="M7.5 7.25C7.5 4.58 9.422 2.5 12 2.5c2.079 0 3.71 1.34 4.282 3.242a.75.75 0 101.436-.432C16.971 2.825 14.792 1 12 1 8.503 1 6 3.845 6 7.25V9h-.5A2.5 2.5 0 003 11.5v8A2.5 2.5 0 005.5 22h13a2.5 2.5 0 002.5-2.5v-8A2.5 2.5 0 0018.5 9h-11V7.25zm-3 4.25a1 1 0 011-1h13a1 1 0 011 1v8a1 1 0 01-1 1h-13a1 1 0 01-1-1v-8z"/></svg>
